src/asset/120/noApiKey.svg

<svg width="120" height="120" viewBox="0 0 120 120" fill="none" xmlns="http://www.w3.org/2000/svg">
<path d="M91.0905 46.0393C91.0905 46.0393 50.7571 46.0393 48.7743 46.0393C46.6409 46.0393 45.1601 41 42.9514 41H26.9134C25.3071 41 24.002 42.1295 24.002 43.5197V48.559V86.441V91.4803C24.002 92.8705 25.3071 94 26.9134 94H91.0905C92.6968 94 94.002 92.8705 94.002 91.4803V48.559C94.002 47.1689 92.6968 46.0393 91.0905 46.0393Z" fill="url(#paint0_linear)"/>
<path d="M88.9682 52H29.0357C28.4718 52 28.002 52.4481 28.002 52.9858V89.0142C28.002 89.5519 28.4718 90 29.0357 90H88.9682C89.5321 90 90.002 89.5519 90.002 89.0142V52.9858C90.002 52.4481 89.5321 52 88.9682 52Z" fill="white"/>
<path d="M69.0107 64.9887L66.0226 67.9769L71.026 72.9803L65.0265 78.9797L60.0231 73.9763L56.2706 77.7289C54.5796 79.4198 51.8694 79.4198 50.1785 77.752L50.248 77.8215C48.5802 76.1537 48.5802 73.4204 50.2711 71.7294L74.57 47.4305C73.574 45.5079 73.018 43.3074 73.018 40.991C73.018 33.2542 79.2955 27 87.009 27C94.7226 27 101 33.2774 101 40.991C101 48.7045 94.7226 54.982 87.009 54.982C84.6926 54.982 82.4921 54.426 80.5695 53.43L75.0101 58.9893L79.0175 62.9967L73.018 68.9961L69.0107 64.9887Z" fill="url(#paint1_linear)"/>
<path d="M90.7448 44.5443C92.7462 42.5382 92.7462 39.2857 90.7448 37.2796C88.7434 35.2735 85.4985 35.2735 83.4971 37.2796C81.4957 39.2857 81.4957 42.5382 83.4971 44.5443C85.4985 46.5504 88.7434 46.5504 90.7448 44.5443Z" fill="white"/>
<defs>
<linearGradient id="paint0_linear" x1="24.002" y1="94" x2="96.06" y2="91.0362" gradientUnits="userSpaceOnUse">
<stop stop-color="#648CF5"/>
<stop offset="1" stop-color="#78A0FF"/>
</linearGradient>
<linearGradient id="paint1_linear" x1="49" y1="79" x2="102.567" y2="77.3318" gradientUnits="userSpaceOnUse">
<stop stop-color="#FFBE41"/>
<stop offset="1" stop-color="#FF9141"/>
</linearGradient>
</defs>
</svg>

<svg width="120" height="120" fill="none" xmlns="http://www.w3.org/2000/svg"><path d="M91.09 46.04H48.775c-2.133 0-3.614-5.04-5.822-5.04H26.914c-1.607 0-2.912 1.13-2.912 2.52v47.96c0 1.39 1.305 2.519 2.912 2.519H91.09c1.606 0 2.911-1.13 2.911-2.52V48.56c0-1.39-1.305-2.52-2.911-2.52z" fill="url(#paint0_linear)"/><path d="M88.969 52H29.036c-.564 0-1.034.448-1.034.986v36.028c0 .538.47.986 1.034.986h59.933c.563 0 1.033-.448 1.033-.986V52.986c0-.538-.47-.986-1.033-.986z" fill="#fff"/><path d="M69.01 64.989l-2.987 2.988 5.003 5.003-6 6-5.003-5.004-3.752 3.753a4.313 4.313 0 01-6.093.023l.07.07c-1.668-1.668-1.668-4.402.023-6.093L74.57 47.431a13.985 13.985 0 01-1.552-6.44C73.018 33.254 79.296 27 87.009 27 94.723 27 101 33.277 101 40.991c0 7.714-6.277 13.991-13.991 13.991a13.99 13.99 0 01-6.44-1.552l-5.559 5.56 4.007 4.007-5.999 6-4.007-4.008z" fill="url(#paint1_linear)"/><path d="M90.745 44.544a5.145 5.145 0 000-7.264 5.116 5.116 0 00-7.247 0 5.145 5.145 0 000 7.264 5.116 5.116 0 007.247 0z" fill="#fff"/><defs><linearGradient id="paint0_linear" x1="94.002" y1="41" x2="94.002" y2="94" gradientUnits="userSpaceOnUse"><stop stop-color="#FFA526"/><stop offset="1" stop-color="#FF860D"/></linearGradient><linearGradient id="paint1_linear" x1="101" y1="27" x2="101" y2="79" gradientUnits="userSpaceOnUse"><stop stop-color="#4070FF"/><stop offset="1" stop-color="#365FD9"/></linearGradient></defs></svg>
